pix_plugins/assignfeedback/editpdf/highlight.svg

<!DOCTYPE svg PUBLIC "-//W3C//DTD SVG 1.1//EN" "http://www.w3.org/Graphics/SVG/1.1/DTD/svg11.dtd" [
	<!ENTITY ns_flows "http://ns.adobe.com/Flows/1.0/">
]><svg xmlns="http://www.w3.org/2000/svg" width="16" height="16" viewBox="0 0 16 16" preserveAspectRatio="xMinYMid meet" overflow="visible"><path d="M1.3 5.8l4.2-5.8h2.5l-3.8 5.2 6.5 3.8 4-9h1.3v1.9l-4.3 9.9-.4-.2c-1.1.1-3.6.7-4.7 2.5l-4.8-2.8c1.1-1.8.3-4.3-.1-5.3l-.4-.2zm3.3 10.2l.8-1.5-3.5-2-2 3.4v.1h4.7z" fill="#888"/></svg>

<?xml version="1.0" encoding="utf-8"?>
<!-- Generator: Adobe Illustrator 15.1.0, SVG Export Plug-In  -->
<!DOCTYPE svg PUBLIC "-//W3C//DTD SVG 1.1//EN" "http://www.w3.org/Graphics/SVG/1.1/DTD/svg11.dtd" [
	<!ENTITY ns_flows "http://ns.adobe.com/Flows/1.0/">
]>
<svg version="1.1"
	 xmlns="http://www.w3.org/2000/svg" xmlns:xlink="http://www.w3.org/1999/xlink" xmlns:a="http://ns.adobe.com/AdobeSVGViewerExtensions/3.0/"
	 x="0px" y="0px" width="16px" height="16px" viewBox="0 0 16 16" style="overflow:visible;enable-background:new 0 0 16 16;"
	 xml:space="preserve" preserveAspectRatio="xMinYMid meet">
<defs>
</defs>
<path style="fill:#29a1c4;" d="M1.3,5.8L5.5,0H8L4.2,5.2l6.5,3.8L14.7,0H16v1.9l-4.3,9.9l-0.4-0.2c-1.1,0.1-3.6,0.7-4.7,2.5
	l-4.8-2.8C2.9,9.5,2.1,7,1.7,6L1.3,5.8z M4.6,16l0.8-1.5l-3.5-2l-2,3.4V16H4.6z"/>
</svg>
